!!!!SEGMENT: pl-kk--kk-i-7--052-001_palestrina-giovanni-pierluigi-da--missa-de-sanctis-apostolis-kyrie.krn
!!!cenid: 16xx:871
!!!COM: Palestrina, Giovanni Pierluigi da
!!!COM-rismID:
!!!CDT: ~1525-1594/02/02
!!!CNT: Italian
!!!OPR: Missa de Sanctis Apostolis
!!!OTL: Kyrie
!!!OMV: 001
!!!PDT:
!!!AGN: Sacred; Mass
!!!SMS-siglum: PL-Kk
!!!SMS-shelfmark: Kk.I.7
!!!SMS-shelfwork: 052-001 M
!!!SMS-variant:
!!!SMS-altvar:
!!!NIFC-rismSourceID: 300258129
!!!NIFC-islandoraID: pl-kk:1956
!!!URL-pdf-islandora: https://repozytorium.nifc.pl/islandora/object/pl-kk%3A1956/datastream/PDF/view
!!!URL-scan: https://polish.musicsources.pl/pl/lokalizacje/galeria/rekopisy/6140 @EN{Scan on Polish Music Herritage in Open Access Website} @PL{Skany w portalu Dziedzictwo Muzyki Polskiej w otwartym dostępie}
!!!ONB-nifc: UWAGA: C (skan 0049-0050, s.90-92), A (0133-0134, s.86-88), T (0209-0210, s.80-82), B(0297-0298, s.80-82). Części Mszy: 1. Kyrie, 2. Et in terra, 3. Sanctus, 4. Agnus Dei. "Agnus II" rozpisane na 5 głosów. Głos dodatkowy zapisany w księdze T na stronie 82
!!!AIN: 1 alto 1 bass 1 soprn 1 tenor
!!!key:
**kern	**text	**kern	**text	**kern	**text	**kern	**text
*part4	*part4	*part3	*part3	*part2	*part2	*part1	*part1
*staff4	*staff4	*staff3	*staff3	*staff2	*staff2	*staff1	*staff1
*group1	*	*group1	*	*group1	*	*group1	*
*Ibass	*	*Itenor	*	*Ialto	*	*Isoprn	*
*I"BASSVS.	*	*I"TENOR.	*	*I"ALTVS.	*	*I"CANTVS.	*
*I'B	*	*I'T	*	*I'A	*	*I'S	*
*clefF3	*	*clefC3	*	*clefC2	*	*clefC1	*
*k[b-]	*	*k[b-]	*	*k[b-]	*	*k[b-]	*
*F:	*	*F:	*	*F:	*	*F:	*
*M2/1	*	*M2/1	*	*M2/1	*	*M2/1	*
*met(C|)	*	*met(C|)	*	*met(C|)	*	*met(C|)	*
=1-	=1-	=1-	=1-	=1-	=1-	=1-	=1-
!LO:TX:t=P:problem=przy kluczu BB- B-	!	!	!	!LO:TX:t=P:problem=przy kluczu B- b-	!	!	!
00r	.	1F	Ky-	1r	.	0r	.
.	.	2F/	-ri	1c	Ky-	.	.
.	.	2G/	.	.	.	.	.
=2-	=2-	=2-	=2-	=2-	=2-	=2-	=2-
!	!	!	!	!	!	!LO:TX:t=P:problem=kreska pseudotaktowa	!
.	.	2A/	e-	2c/	-ri-	1r	.
!	!	!LO:TX:t=P:problem=kreska pseudotaktowa	!	!	!	!	!
.	.	2F/	.	2d/	-e	.	.
.	.	2G/	.	2e/	e-	2re	.
!	!	!	!	!LO:TX:t=P:problem=kreska pseudotaktowa	!	!LO:TX:t=P:problem=kreska pseudotaktowa	!
.	.	2A/	.	2c/	.	2f/	Ky-
=3-	=3-	=3-	=3-	=3-	=3-	=3-	=3-
00r	.	2B-/	-lei-	2d/	.	2f/	-ri-
!	!	!LO:TX:t=P:problem=kreska pseudotaktowa	!	!	!	!	!
*	*	*	*	*	*	*2\right	*
.	.	2G/	.	2e/	.	2g\	-e
!	!	!LO:TX:t=P:global:problem=rozdzielacz słów / znak oddechu	!	!	!	!	!
.	.	2F,</	-son	2f/	.	2a\	.
!	!	!	!	!	!	!LO:TX:t=P:problem=kreska pseudotaktowa	!
.	.	1f\	Ky-	2d/	.	2f/	.
=4-	=4-	=4-	=4-	=4-	=4-	=4-	=4-
!	!	!	!	!LO:TX:t=P:problem=kreska pseudotaktowa	!	!	!
.	.	.	.	1c	-lei-	2g\	e-
*	*	*2\right	*	*	*	*	*
.	.	2e\	-ri-	.	.	2a\	.
.	.	4d\	-e	4G/	.	1.b-	-lei-
.	.	4c\	.	4A/	.	.	.
.	.	4B-/	.	4B-/	.	.	.
.	.	4A/	.	4c/	.	.	.
=5-	=5-	=5-	=5-	=5-	=5-	=5-	=5-
!LO:TX:t=P:problem=kreska pseudotaktowa	!	!	!	!	!	!	!
0r	.	2G/	.	4d/	.	.	.
.	.	.	.	4e/	.	.	.
!	!	!LO:TX:t=P:problem=kreska pseudotaktowa	!	!	!	!LO:TX:t=P:problem=kreska pseudotaktowa	!
.	.	2F/	.	1f	.	2a\	.
.	.	0c	e-	.	.	1g	.
!	!	!	!	!LO:TX:t=P:problem=kreska pseudotaktowa	!	!	!
.	.	.	.	2e/	.	.	.
=6-	=6-	=6-	=6-	=6-	=6-	=6-	=6-
*2\right	*	*	*	*2\right	*	*	*
1F	Ky-	.	.	2f\	-son	2a\	.
*	*	*	*	*	*ij	*	*
.	.	.	.	1a	Ky-	1cc	.
2F\	-ri-	1d	-lei-	.	.	.	.
2G\	-e	.	.	4g\	-ri-	2b-\	.
.	.	.	.	4f\	.	.	.
=7-	=7-	=7-	=7-	=7-	=7-	=7-	=7-
!	!	!	!	!	!	!LO:TX:t=P:problem=kreska pseudotaktowa	!
2A\	e-	2c,<\	-son	2e\	-e	1cc	-son
!LO:TX:t=P:problem=kreska pseudotaktowa	!	!	!	!	!	!	!
*	*	*	*ij	*	*	*	*
2F\	.	2f\	Ky-	2a\	e-	.	.
2G\	.	2e\	-ri-	2g\	-lei-	1rdd	.
!	!	!LO:TX:t=P:problem=kreska pseudotaktowa	!	!	!	!	!
2A\	-lei-	2c\	-e	1f\	.	.	.
=8-	=8-	=8-	=8-	=8-	=8-	=8-	=8-
2.B-\	.	2.d\	e-	.	.	1f	Ky-
!	!	!	!	!LO:TX:t=P:problem=kreska pseudotaktowa	!	!	!
.	.	.	.	2d/	-son	.	.
*	*	*	*	*	*Xij	*	*
8A\L	.	8c/L	.	.	.	.	.
8G\J	.	8B-/J	.	.	.	.	.
!LO:TX:t=P:global:problem=rozdzielacz słów / znak oddechu	!	!	!	!	!	!	!
2F,</	-son	2A/	-lei-	2rc	.	2f/	-ri-
!	!	!	!	!	!	!LO:TX:t=P:problem=kreska pseudotaktowa	!
2E/	Ky-	2G/	.	2c/	Ky-	2g/	-e
=9-	=9-	=9-	=9-	=9-	=9-	=9-	=9-
!	!	!LO:TX:t=P:problem=kreska pseudotaktowa	!	!	!	!	!
2F/	-ri-	1F	-son	2c/	-ri-	2a\	e-
*	*	*	*Xij	*	*	*	*
!LO:TX:t=P:problem=kreska pseudotaktowa	!	!	!	!	!	!	!
2D/	-e	.	.	2d/	-e	2f/	.
2C/	e-	2rF	.	2e/	e-	2g\	.
!	!	!	!	!LO:TX:t=P:problem=kreska pseudotaktowa	!	!LO:TX:t=P:problem=kreska pseudotaktowa	!
2F/	.	2F/	Ky-	2c/	.	2a\	.
=10-	=10-	=10-	=10-	=10-	=10-	=10-	=10-
2D/	.	2F/	-ri-	2d/	.	2b-\	.
2C/	.	2G/	-e	2e/	.	1cc	lei-
2F/	.	2A/	e-	1.f	-lei-	.	.
2D/	.	2F/	.	.	.	2b-\	.
=11-	=11-	=11-	=11-	=11-	=11-	=11-	=11-
!	!	!	!	!	!	!LO:TX:t=P:problem=kreska pseudotaktowa	!
1C	.	2G/	.	.	.	1cc	-son
.	.	2A/	.	2e/	.	.	.
1BB-	lei-	1.B-	-lei-	1d	.	2f/	e-
*	*	*	*	*	*	*lig	*
.	.	.	.	.	.	1g	-lei-
=12-	=12-	=12-	=12-	=12-	=12-	=12-	=12-
0C	.	.	.	[0cl;	-son.	.	.
.	.	2A/	.	.	.	1f	.
.	.	1G	.	.	.	.	.
*	*	*	*	*	*	*Xlig	*
.	.	.	.	.	.	2e/	.
=13-	=13-	=13-	=13-	=13-	=13-	=13-	=13-
0Fl;	-son	0Al;	-son	0c]	.	0fl;	-son.
!	!	!LO:LB:g=original	!	!LO:LB:g=original	!	!LO:LB:g=original	!
=14||	=14||	=14||	=14||	=14||	=14||	=14||	=14||
*M2/1	*	*M2/1	*	*M2/1	*	*M2/1	*
*met(C|)	*	*met(C|)	*	*met(C|)	*	*met(C|)	*
!	!	!LO:TX:t=P:problem=kreska pseudotaktowa	!	!	!	!LO:TX:t=P:problem=kreska pseudotaktowa	!
00r	.	0r	.	1B-	Chri-	1rdd	.
.	.	.	.	2.d/	-ste	1f	Chri-
.	.	.	.	4e/	.	.	.
=15-	=15-	=15-	=15-	=15-	=15-	=15-	=15-
.	.	1F	Chri-	0f	.	2.a\	-ste
!	!	!	!	!	!	!LO:TX:t=P:problem=kreska pseudotaktowa	!
.	.	.	.	.	.	4b-\	.
.	.	2A/	-ste	.	.	2cc\	.
.	.	2B-/	e-	.	.	2.dd\	.
=16-	=16-	=16-	=16-	=16-	=16-	=16-	=16-
*	*	*lig	*	*	*	*	*
!LO:TX:t=P:problem=kreska pseudotaktowa	!	!	!	!LO:TX:t=P:problem=kreska pseudotaktowa	!	!	!
0r	.	1c	-lei-	1e	e-	.	.
.	.	.	.	.	.	4cc\	.
.	.	.	.	.	.	1cc	.
.	.	1d	.	2.f\	.	.	.
!	!	!	!	!	!	!LO:TX:t=P:problem=kreska pseudotaktowa	!
.	.	.	.	.	.	2b-\	.
.	.	.	.	4g\	.	.	.
*	*	*Xlig	*	*	*	*	*
=17-	=17-	=17-	=17-	=17-	=17-	=17-	=17-
!	!	!LO:TX:t=P:problem=kreska pseudotaktowa	!	!	!	!	!
1F	Chri-	1c	-son	1.a	.	1.cc	e-
2A\	.	00r	.	.	.	.	.
2B-\	.	.	.	4g\	.	4b-\	.
.	.	.	.	4f\	.	4a\	.
=18-	=18-	=18-	=18-	=18-	=18-	=18-	=18-
1c	-ste	.	.	2e\	.	2g/	.
.	.	.	.	2.g\	-lei-	2cc\	.
!LO:TX:t=P:problem=kreska pseudotaktowa	!	!	!	!	!	!	!
1d	e-	.	.	.	.	4b-\	.
.	.	.	.	4f\	.	4a\	.
.	.	.	.	1f\	.	4a\	.
.	.	.	.	.	.	8g/L	.
!	!	!	!	!	!	!LO:TX:t=P:problem=kreska pseudotaktowa	!
.	.	.	.	.	.	8f/J	.
=19-	=19-	=19-	=19-	=19-	=19-	=19-	=19-
2.c\	.	.	.	.	.	2g/	.
.	.	.	.	2e\	.	2.cc\	-lei-
4B-\	.	.	.	.	.	.	.
!	!	!	!	!LO:TX:t=P:problem=kreska pseudotaktowa	!	!	!
*	*	*	*ij	*	*	*	*
4A\	.	1F	Chri-	1f	-son	.	.
4G\	.	.	.	.	.	4b-\	.
4F/	.	.	.	.	.	4a\	.
!LO:TX:t=P:problem=kreska pseudotaktowa	!	!	!	!	!	!LO:TX:t=P:problem=kreska pseudotaktowa	!
4E/	.	.	.	.	.	4g\	.
!LO:LB:g=original	!	!	!	!	!	!	!
=20-	=20-	=20-	=20-	=20-	=20-	=20-	=20-
2D/	.	2.A/	-ste	2r	.	2f/	.
*	*	*	*	*	*ij	*	*
2F/	.	.	.	2c/	Chri-	2a/	.
.	.	4B-/	e-	.	.	.	.
2E/	.	2c\	-lei-	2e\	.	2g/	.
!LO:TX:t=P:problem=kreska pseudotaktowa	!	!	!	!	!	!	!
2D/	.	2.d\	.	2f\	.	2f/	.
=21-	=21-	=21-	=21-	=21-	=21-	=21-	=21-
2E/	.	.	.	2g\	.	1e	.
.	.	4c/	.	.	.	.	.
2F/	.	1c	.	2.a\	-ste	.	.
!	!	!	!	!	!	!LO:TX:t=P:problem=kreska pseudotaktowa	!
1G	-lei-	.	.	.	.	1d	-son
.	.	.	.	4g\	e-	.	.
.	.	2B-/	.	1g	-lei-	.	.
=22-	=22-	=22-	=22-	=22-	=22-	=22-	=22-
!LO:TX:t=P:problem=kreska pseudotaktowa	!	!LO:TX:t=P:problem=kreska pseudotaktowa	!	!	!	!	!
1A	-son	0c	-son	.	.	2re	.
*	*	*	*Xij	*	*	*	*ij
!	!	!	!	!LO:TX:t=P:problem=kreska pseudotaktowa	!	!	!
.	.	.	.	2f\	.	2c/	Chri-
2rD	.	.	.	1.g	.	2.e/	-ste
2C/	X-	.	.	.	.	.	.
.	.	.	.	.	.	4f/	.
=23-	=23-	=23-	=23-	=23-	=23-	=23-	=23-
2E/	-te	2r	.	.	.	2g/	.
*	*	*	*	*2\left	*	*	*
2F/	.	1c	Chri-	2f\	.	2.a\	.
*lig	*	*	*	*	*	*	*
1G	e-	.	.	2e/	.	.	.
.	.	.	.	.	.	4g/	.
.	.	2Bn/	.	2.d/	.	1g	e-
=24-	=24-	=24-	=24-	=24-	=24-	=24-	=24-
!	!	!LO:TX:t=P:problem=kreska pseudotaktowa	!	!	!	!	!
1A	.	1c	-ste	.	.	.	.
.	.	.	.	4c/	.	.	.
.	.	.	.	1c	.	2f/	.
*Xlig	*	*	*	*	*	*lig	*
1G	.	1d	e-	.	.	1g	-lei-
.	.	.	.	2B-/	.	.	.
=25-	=25-	=25-	=25-	=25-	=25-	=25-	=25-
!	!	!	!	!LO:TX:t=P:problem=kreska pseudotaktowa	!	!	!
1.F	.	2f\	-lei-	1c	-son	1a	.
.	.	2F/	.	.	.	.	.
*	*	*	*	*	*Xij	*Xlig	*
!	!	!	!	!	!	!LO:TX:t=P:problem=kreska pseudotaktowa	!
.	.	2A/	.	2rA	.	1f	-son
*	*	*	*	*	*	*	*Xij
2D/	.	2B-y/	.	2F/	Chri-	.	.
=26-	=26-	=26-	=26-	=26-	=26-	=26-	=26-
!	!	!LO:TX:t=P:problem=kreska pseudotaktowa	!	!	!	!	!
2E/	.	1c	.	2G/	.	1rdd	.
!LO:TX:t=P:problem=kreska pseudotaktowa	!	!	!	!	!	!	!
2F/	lei-	.	.	2A/	.	.	.
!	!	!	!	!LO:TX:t=P:problem=kreska pseudotaktowa	!	!	!
4BB-/	.	1d	.	1B-	-ste	2r	.
4C/	.	.	.	.	.	.	.
4D/	.	.	.	.	.	2f/	X-
4E/	.	.	.	.	.	.	.
=27-	=27-	=27-	=27-	=27-	=27-	=27-	=27-
2F,\	-son	4c/	.	2A/	e-	2.a\	-te
.	.	4B-/	.	.	.	.	.
2F\	X-	4A/	.	1f	.	.	.
!	!	!	!	!	!	!LO:TX:t=P:problem=kreska pseudotaktowa	!
.	.	4G/	.	.	.	4b-\	.
2A\	-te	2F,</	-son	.	.	2cc\	e-
*	*	*	*ij	*	*	*	*
2B-\	e-	2f\	Chri-	2d/	.	2.dd\	-lei
=28-	=28-	=28-	=28-	=28-	=28-	=28-	=28-
*	*	*	*	*2\right	*	*	*
2c\	-lei-	2e\	-ste	2e\	-lei-	.	.
.	.	.	.	.	.	4cc\	.
2A\	.	2c\	e-	2f\	.	1cc	.
1G	.	1d	-lei-	1g	.	.	.
.	.	.	.	.	.	2b-\	.
!	!	!	!	!	!	!LO:LB:g=original	!
=29-	=29-	=29-	=29-	=29-	=29-	=29-	=29-
!	!	!	!	!	!	!LO:TX:t=P:problem=fragment nieczytelny [defekt źródła]	!
0Cl;	-son	0cl;	-son	0el;	-son.	0ryy	.
*	*	*	*Xij	*	*	*	*
!	!	!LO:LB:g=original	!	!LO:LB:g=original	!	!	!
=30||	=30||	=30||	=30||	=30||	=30||	=30||	=30||
*M2/1	*	*M2/1	*	*M2/1	*	*M2/1	*
*met(C|)	*	*met(C|)	*	*met(C|)	*	*met(C|)	*
!	!	!LO:TX:t=P:problem=kreska pseudotaktowa	!	!	!	!LO:TX:t=P:problem=kreska pseudotaktowa	!
00r	.	0r	.	2.c/	Ky-	0r	.
.	.	.	.	4d/	-ri-	.	.
.	.	.	.	4e\	-e	.	.
.	.	.	.	4f\	.	.	.
.	.	.	.	4g\	.	.	.
!	!	!	!	!LO:TX:t=P:problem=kreska pseudotaktowa	!	!	!
.	.	.	.	4e\	.	.	.
=31-	=31-	=31-	=31-	=31-	=31-	=31-	=31-
.	.	2.F/	Ky-	1.f	.	1cc	Ky-
.	.	4G/	-ri-	.	.	.	.
.	.	4A/	-e	.	.	2cc\	-ri-
.	.	4B-/	.	.	.	.	.
.	.	4c/	.	2e/	.	2cc\	-e
.	.	4A/	.	.	.	.	.
=32-	=32-	=32-	=32-	=32-	=32-	=32-	=32-
!LO:TX:t=P:problem=kreska pseudotaktowa	!	!	!	!	!	!	!
00r	.	1B-	e-	2.d/	e-	1.dd	e-
.	.	.	.	8c/L	.	.	.
!	!	!	!	!LO:TX:t=P:problem=kreska pseudotaktowa	!	!	!
.	.	.	.	8d/J	.	.	.
.	.	2B-/	-lei-	4d/	.	.	.
.	.	.	.	4e/	.	.	.
.	.	2A/	.	4f/	.	2cc\	.
.	.	.	.	4e/	.	.	.
=33-	=33-	=33-	=33-	=33-	=33-	=33-	=33-
.	.	2G/	.	2g\	-lei-	2b-\	-lei-
.	.	2A/	.	1f	.	2a\	.
!	!	!LO:TX:t=P:problem=kreska pseudotaktowa	!	!	!	!	!
.	.	1c	-son	.	.	1g	.
.	.	.	.	2e\	.	.	.
=34-	=34-	=34-	=34-	=34-	=34-	=34-	=34-
!	!	!	!	!LO:TX:t=P:problem=kreska pseudotaktowa	!	!LO:TX:t=P:problem=kreska pseudotaktowa	!
2.F\	Ky-	2r	.	1f	-son	0a	-son
*	*	*	*ij	*	*	*	*
.	.	2c\	Ky-	.	.	.	.
4G\	.	.	.	.	.	.	.
4A\	-ri-	2c\	-ri-	1rcc	.	.	.
4B-\	.	.	.	.	.	.	.
4c\	-e	2c\	-e	.	.	.	.
!LO:TX:t=P:problem=kreska pseudotaktowa	!	!	!	!	!	!	!
4A\	.	.	.	.	.	.	.
=35-	=35-	=35-	=35-	=35-	=35-	=35-	=35-
2.B-\	e-	2.d\	e-	2rf	.	0r	.
.	.	.	.	2f\	Ky-	.	.
*custos:d	*	*	*	*	*	*	*
!LO:TX:t=P:problem=kreska pseudotaktowa	!	!	!	!	!	!	!
4c\	.	4c/	.	.	.	.	.
!LO:LB:g=original	!	!	!	!	!	!	!
2d\	-lei-	2B-/	.	2f\	-ri-	.	.
!	!	!	!	!LO:TX:t=P:problem=kreska pseudotaktowa	!	!	!
1c\	.	2A/	-lei-	2f\	-e	.	.
=36-	=36-	=36-	=36-	=36-	=36-	=36-	=36-
!	!	!LO:TX:t=P:problem=kreska pseudotaktowa	!	!	!	!	!
.	.	1G	-son	2.g\	e-	2r	.
*	*	*	*	*	*	*	*ij
2Bn\	.	.	.	.	.	2g/	Ky-
.	.	.	.	4f\	.	.	.
!LO:TX:t=P:problem=kreska pseudotaktowa	!	!	!	!	!	!	!
1c	-son	1r	.	4e/	.	2g/	-ri-
.	.	.	.	4d/	.	.	.
.	.	.	.	2e/	.	2g/	-e
=37-	=37-	=37-	=37-	=37-	=37-	=37-	=37-
!LO:TX:t=P:problem=kreska pseudotaktowa	!	!	!	!	!	!	!
00r	.	2.F/	Ky-	1.f	-lei-	1.a	e-
.	.	4G/	-ri-	.	.	.	.
.	.	4A/	-e	.	.	.	.
.	.	4B-/	.	.	.	.	.
.	.	4c/	.	2e/	.	2g/	.
.	.	4G/	e-	.	.	.	.
=38-	=38-	=38-	=38-	=38-	=38-	=38-	=38-
.	.	2B-/	-lei-	2d/	.	2f/	.
.	.	2c/	.	1c	.	2e/	-lei-
!	!	!LO:TX:t=P:problem=kreska pseudotaktowa	!	!	!	!LO:TX:t=P:problem=kreska pseudotaktowa	!
.	.	1G	-son	.	.	1d	.
*	*	*	*Xij	*	*	*	*
!	!	!	!	!LO:TX:t=P:problem=kreska pseudotaktowa	!	!	!
.	.	.	.	2Bn/	.	.	.
=39-	=39-	=39-	=39-	=39-	=39-	=39-	=39-
1c	Ky-	00r	.	4c/	.	2e/	-son
*	*	*	*	*	*	*	*Xij
.	.	.	.	4d/	.	.	.
.	.	.	.	4e/	.	4c/	e-
.	.	.	.	4f/	.	4d/	.
!	!	!	!	!LO:TX:t=P:problem=kreska pseudotaktowa	!	!	!
2c\	-ri-	.	.	1g	-son	4e/	.
.	.	.	.	.	.	4f/	.
2c\	-e	.	.	.	.	4g/	.
!	!	!	!	!	!	!LO:TX:t=P:problem=kreska pseudotaktowa	!
.	.	.	.	.	.	4e/	.
=40-	=40-	=40-	=40-	=40-	=40-	=40-	=40-
1.d	e-	.	.	2rc	.	2.f/	-lei-
.	.	.	.	4d/	Ky-	.	.
.	.	.	.	4e/	.	4g/	.
.	.	.	.	4f\	-ri-	4a\	.
.	.	.	.	4g\	.	4b-\	.
!LO:TX:t=P:problem=kreska pseudotaktowa	!	!	!	!	!	!	!
2c\	.	.	.	2a\	-e	4cc\	.
.	.	.	.	.	.	4a\	.
=41-	=41-	=41-	=41-	=41-	=41-	=41-	=41-
!	!	!LO:TX:t=P:problem=kreska pseudotaktowa	!	!	!	!	!
2B-y\	.	0r	.	4g\	.	2dd\	.
.	.	.	.	4f\	.	.	.
!	!	!	!	!	!	!LO:TX:t=P:problem=kreska pseudotaktowa	!
2A\	.	.	.	1f	.	2cc\	.
1G	-lei-	.	.	.	.	1b-	.
.	.	.	.	2e\	.	.	.
=42-	=42-	=42-	=42-	=42-	=42-	=42-	=42-
!LO:TX:t=P:problem=kreska pseudotaktowa	!	!	!	!LO:TX:t=P:problem=kreska pseudotaktowa	!	!	!
0F	-son	1c	Ky-	00f	e-	2a\	.
.	.	.	.	.	.	4f/	.
.	.	.	.	.	.	4g/	.
.	.	2c\	-ri-	.	.	4a\	.
.	.	.	.	.	.	4b-\	.
.	.	2c\	-e	.	.	4cc\	.
!	!	!	!	!	!	!LO:TX:t=P:problem=kreska pseudotaktowa	!
.	.	.	.	.	.	4a\	.
=43-	=43-	=43-	=43-	=43-	=43-	=43-	=43-
*	*ij	*	*	*	*	*	*
2.BB-/	Ky-	1.d	e-	.	.	1.b-	.
4C/	.	.	.	.	.	.	.
4D/	-ri-	.	.	.	.	.	.
4E/	.	.	.	.	.	.	.
!	!	!LO:TX:t=P:problem=kreska pseudotaktowa	!	!	!	!	!
2F/	-e	2c/	.	.	.	2a\	.
=44-	=44-	=44-	=44-	=44-	=44-	=44-	=44-
*	*	*	*	*lig	*	*	*
1BB-	e-	2B-/	-lei-	1d	-lei-	2g/	.
.	.	2A/	.	.	.	1f	.
1C	-lei-	1G	.	1c	.	.	.
.	.	.	.	.	.	2e/	.
*	*	*	*	*Xlig	*	*	*
=45-	=45-	=45-	=45-	=45-	=45-	=45-	=45-
0Fl;	-son	0Al;	-son.	0cl;	-son.	0fl;	-son.
*	*Xij	*	*	*	*	*	*
==	==	==	==	==	==	==	==
*-	*-	*-	*-	*-	*-	*-	*-
!!!system-decoration: [g1]
!!!RDF**kern: > = above
!!!RDF**kern: < = below
!!!RDF**kern: l = terminal long
!!!ENC: Andrzej Kubiczek
!!!END: 2021-03-16
!!!ENC: Andrzej Kubiczek
!!!END: 2021-02-28
